X: 1
T: Reign of Love
T: (Rain of Love)
C: Keith Murphy
R: march, reel
B: Keith Murphy "Black Isle Music II" p.37 2012
Z: 2017 John Chambers <jc:trillian.mit.edu>
M: C
L: 1/8
K: Em
B,2 |\
"Em"E2FG A2B2 | G4 "(D)"F4 | "D"A2GF E2A2 | GFE2 FED2 | "Em"E2FG A2B2 | G4 "(D)"F4 |
"D"A2GF EFD2 | "A"E6 : z2 | "Em"e2B2 d2A2 | A2BA G2F2 | "D"A2GF E2A2 |
"G"B2G2 "D"d4 | "Em"e2B2 d2A2 | A2BA G2F2 | "D"A2GF EFD2 | "A"E6 |]

%%sep 1 1 500

